src/assets/img/svg/favorite.svg

<svg xmlns="http://www.w3.org/2000/svg" width="32" height="29" viewBox="0 0 32 29"><path fill="#ffa501" d="M16 29c-.5 0-1-.2-1.4-.5C11.2 25.5 0 15.2 0 8.9 0 4 3.9 0 8.6 0c3.1 0 5.9 1.7 7.4 4.3C17.5 1.7 20.3 0 23.4 0 28.1 0 32 4 32 8.9c0 6.3-11.2 16.6-14.6 19.6-.4.3-.9.5-1.4.5M8.6 2C5 2 2 5.1 2 8.9 2 13.3 9.5 21.4 15.9 27h.1c6.5-5.6 14-13.7 14-18.1C30 5.1 27 2 23.4 2c-2.7 0-5.1 1.7-6.1 4.3-.2.3-.5.7-1.3.7-.7 0-1.1-.2-1.3-.7-1-2.6-3.4-4.3-6.1-4.3"/></svg>

<svg
  width="32"
  height="29"
  viewBox="0 0 32 29"
  xmlns="http://www.w3.org/2000/svg"
>
  <path
    d="M16 29C15.5 29 15 28.8 14.6 28.5C11.2 25.5 0 15.2 0 8.9C0 4 3.9 0 8.6 0C11.7 0 14.5 1.7 16 4.3C17.5 1.7 20.3 0 23.4 0C28.1 0 32 4 32 8.9C32 15.2 20.8 25.5 17.4 28.5C17 28.8 16.5 29 16 29ZM8.6 2C5 2 2 5.1 2 8.9C2 13.3 9.5 21.4 15.9 27H16C22.5 21.4 30 13.3 30 8.9C30 5.1 27 2 23.4 2C20.7 2 18.3 3.7 17.3 6.3C17.1 6.6 16.8 7 16 7C15.3 7 14.9 6.8 14.7 6.3C13.7 3.7 11.3 2 8.6 2Z"
    fill="#FFA501"
  />
</svg>
